X: 8505
T: Creel Of Turf, The
R: jig
M: 6/8
K: Edorian
EBB BAG|FAA AGF|EBB GBd|AGF E2D|
EBB BAG|FAA ABc|dcd BdB|1 AGF E2D:|2 AGF E2A||
Bee ede|fef dBA|Bee ede|fdc d2A|
Bee ede|fef dBA|BdB GBd|1 AGF E2A:|2 AGF E2D||

